X:0550
M:6/8
L:1/8
Q:3/8=120
K:G
d|gdB GAG|DED GAG|edc BAG|EAA TA2
f|gdB GAG|ecA FED|gfe dec|BGG  G2:|

